img/svg/buttons-icons/pencil-ico.svg

<svg width="16" height="16" viewBox="0 0 16 16" fill="none" xmlns="http://www.w3.org/2000/svg">
   <path d="M15.0626 0.937688C14.458 0.333 13.6541 0 12.799 0C11.9439 0 11.1399 0.333 10.5353 0.937656L1.58855 9.88441C1.51242 9.96053 1.45727 10.055 1.42839 10.1587L0.0231425 15.2074C-0.0374513 15.4252 0.024205 15.6587 0.184486 15.8181C0.303236 15.9362 0.462361 16 0.625299 16C0.682236 16 0.739674 15.9922 0.796018 15.9762L5.84468 14.5421C6.05768 14.4816 6.2228 14.3129 6.27868 14.0986C6.33455 13.8843 6.27286 13.6565 6.11652 13.4996L2.93364 10.3071L10.3497 2.89097L13.1078 5.64903L7.43049 11.3109C7.18608 11.5546 7.18555 11.9503 7.4293 12.1947C7.67302 12.4392 8.0688 12.4397 8.31318 12.196L15.0626 5.46497C15.6672 4.86031 16.0002 4.05641 16.0002 3.20131C16.0002 2.34622 15.6672 1.54231 15.0626 0.937688ZM4.48133 13.6299L1.52608 14.4694L2.35374 11.4959L4.48133 13.6299ZM14.1793 4.58047L13.9929 4.76638L11.2336 2.00709L11.4192 1.82153C11.7877 1.45297 12.2777 1.25 12.799 1.25C13.3202 1.25 13.8101 1.45297 14.1787 1.82156C14.5473 2.19009 14.7502 2.68009 14.7502 3.20131C14.7502 3.72253 14.5473 4.21253 14.1793 4.58047Z" fill="#4C51CC"/>
</svg>

<svg width="16" height="16" fill="none" xmlns="http://www.w3.org/2000/svg"><path d="M15.063.938A3.18 3.18 0 0012.799 0a3.18 3.18 0 00-2.264.938L1.59 9.884a.625.625 0 00-.16.275L.022 15.207a.625.625 0 00.773.77l5.049-1.435a.625.625 0 00.272-1.042l-3.183-3.193 7.416-7.416 2.758 2.758-5.678 5.662a.625.625 0 10.883.885l6.75-6.731A3.18 3.18 0 0016 3.201a3.18 3.18 0 00-.937-2.263zM4.48 13.63l-2.955.84.828-2.974L4.48 13.63zm9.698-9.05l-.186.186-2.76-2.759.186-.185a1.938 1.938 0 011.38-.572c.521 0 1.011.203 1.38.572.368.368.571.858.571 1.38 0 .52-.203 1.01-.57 1.378z" fill="#4C51CC"/></svg>
